!!!OTL: 2037. Arme Seele.
!!!ODT: 1843
!!!ARE: Europa, Mitteleuropa, Deutschland, Hessen, Frankfurt a.M.
!!!SCT: E2037
!!!TXL: @@DE
!!!YEM: Copyright 1995, estate of Helmut Schaffrath.
**kern	**text
*ICvox	*
*M3/4	*
*met(3)	*
*k[f#]	*
*G:	*
!LO:TX:a:t=Umgegend von Frankfurt a. M. 1843.	!
{4d	Der
=1	=1
4g	Him-
4B	-mel
4e	ſteht
=2	=2
4e	of-
4d	-fen,
8gL	weiß
8aJ	.
=3	=3
4.b	Nie-
8g	-mand
8bL	wa-
8aJ	.
=4	=4
4a	-rum?
4r}	.
{8d	Weil
8d	ein
=5	=5
4cc	Je-
4cc	-der
4a	muß
=6	=6
4b/	käm-
4b/	-pſen
4g	und
=7	=7
4a	ſtrei-
4cc	-ten
4f#	da-
=8	=8
2g}	-rum.
{8d	Weil
8d	ein
=9	=9
4cc	Je-
4cc	-der
4a	muß
=10	=10
4b/	käm-
4b/	-pſen
4g	und
=11	=11
4a	ſtrei-
4cc	-ten
4f#	da-
=12	=12
2g}	-rum.
==	==
!!!AGN: geistlich, Wallfahrts - Lied
!!!ONB: ESAC (Essen Associative Code) Database: ERK3
!!!AMT: simple triple
!!!AIN: vox
!!!EED: Helmut Schaffrath
!!!EEV: 1.0
!!!GTL: 4. Katholische Lieder: a) Wallfahrtlieder zur Bittwoche und zum Fronleichnamstag.
!!!URL-scan: https://rosdok.uni-rostock.de/mcrviewer/recordIdentifier/rosdok_ppn745177999/iview2/phys_0744.iview2?x=95.90973635499199&y=1059.4651233861223&scale=0.7014306698522891&rotation=0&layout=singlePageLayout
!!!ENC: Anna Maria Matuszewska
!!!EEV: 2025/13/01
*-	*-
